icons/svgs/face-sleeping-outline.svg

<svg width="24" height="24" viewBox="0 0 24 24" fill="none" xmlns="http://www.w3.org/2000/svg">
<path d="M3.875 12C3.875 16.4922 7.50781 20.125 12 20.125C16.4531 20.125 20.125 16.4922 20.125 12C20.125 10.8281 19.8516 9.69531 19.3828 8.64062C19.1484 8.17188 19.3828 7.625 19.8516 7.42969C20.3203 7.19531 20.8672 7.39062 21.1016 7.89844C21.6484 9.14844 22 10.5547 22 12C22 17.5469 17.5078 22 12 22C6.45312 22 2 17.5469 2 12C2 6.49219 6.45312 2 12 2C13.4453 2 14.8516 2.35156 16.1406 2.89844C16.6094 3.13281 16.8047 3.67969 16.5703 4.14844C16.375 4.61719 15.8281 4.85156 15.3594 4.61719C14.3047 4.14844 13.1719 3.875 12 3.875C7.50781 3.875 3.875 7.54688 3.875 12ZM12 18.5625C11.4141 18.5625 10.9062 18.2891 10.6328 17.7812C10.3594 17.3125 10.3594 16.7266 10.6328 16.2188C10.9062 15.75 11.4141 15.4375 12 15.4375C12.5469 15.4375 13.0547 15.75 13.3281 16.2188C13.6016 16.7266 13.6016 17.3125 13.3281 17.7812C13.0547 18.2891 12.5469 18.5625 12 18.5625ZM14.5 7C14.1484 7 13.875 6.72656 13.875 6.375C13.875 6.0625 14.1484 5.75 14.5 5.75H17C17.2344 5.75 17.4688 5.90625 17.5469 6.14062C17.6641 6.375 17.5859 6.64844 17.4297 6.84375L15.9844 8.25H17C17.3125 8.25 17.625 8.5625 17.625 8.875C17.625 9.22656 17.3125 9.5 17 9.5H14.5C14.2266 9.5 13.9922 9.34375 13.9141 9.14844C13.7969 8.91406 13.875 8.64062 14.0312 8.44531L15.4766 7H14.5ZM18.25 2.625C18.25 2.3125 18.5234 2 18.875 2H21.375C21.6094 2 21.8438 2.15625 21.9219 2.39062C22.0391 2.625 21.9609 2.89844 21.8047 3.09375L20.3594 4.5H21.375C21.6875 4.5 22 4.8125 22 5.125C22 5.47656 21.6875 5.75 21.375 5.75H18.875C18.6016 5.75 18.3672 5.59375 18.2891 5.39844C18.1719 5.16406 18.25 4.89062 18.4062 4.69531L19.8516 3.25H18.875C18.5234 3.25 18.25 2.97656 18.25 2.625ZM15.7109 11.8438C16.1406 11.8438 16.4922 11.7266 16.7266 11.4922C17 11.1797 17.5078 11.1406 17.8203 11.4531C18.1328 11.7266 18.1328 12.2344 17.8594 12.5469C17.2734 13.1719 16.4922 13.4062 15.7109 13.4062C14.9688 13.4062 14.1484 13.1719 13.6016 12.5469C13.2891 12.2344 13.2891 11.7266 13.6016 11.4531C13.9531 11.1406 14.4219 11.1797 14.7344 11.4922C14.9297 11.7266 15.3203 11.8438 15.7109 11.8438ZM7.23438 11.4922C7.42969 11.7266 7.82031 11.8438 8.21094 11.8438C8.64062 11.8438 8.99219 11.7266 9.22656 11.4922C9.5 11.1797 10.0078 11.1406 10.3203 11.4531C10.6328 11.7266 10.6328 12.2344 10.3594 12.5469C9.77344 13.1719 8.99219 13.4062 8.21094 13.4062C7.46875 13.4062 6.64844 13.1719 6.10156 12.5469C5.78906 12.2344 5.78906 11.7266 6.10156 11.4531C6.45312 11.1406 6.92188 11.1797 7.23438 11.4922Z" fill="black"/>
</svg>

<svg xmlns="http://www.w3.org/2000/svg" width="24" height="24" fill="currentColor" class="icon-face-sleeping-outline" viewBox="0 0 24 24">
  <mask id="a" width="20" height="20" x="2" y="2" maskUnits="userSpaceOnUse" style="mask-type:alpha">
    <path d="M3.875 12A8.12 8.12 0 0 0 12 20.125c4.453 0 8.125-3.633 8.125-8.125 0-1.172-.273-2.305-.742-3.36-.235-.468 0-1.015.469-1.21.468-.235 1.015-.04 1.25.468.546 1.25.898 2.657.898 4.102 0 5.547-4.492 10-10 10A9.97 9.97 0 0 1 2 12C2 6.492 6.453 2 12 2c1.445 0 2.852.352 4.14.898a.925.925 0 0 1 .43 1.25c-.195.47-.742.704-1.21.47-1.055-.47-2.188-.743-3.36-.743-4.492 0-8.125 3.672-8.125 8.125M12 18.563c-.586 0-1.094-.274-1.367-.782-.274-.468-.274-1.054 0-1.562A1.58 1.58 0 0 1 12 15.437a1.56 1.56 0 0 1 1.328.782c.274.508.274 1.093 0 1.562a1.48 1.48 0 0 1-1.328.782M14.5 7a.617.617 0 0 1-.625-.625c0-.312.273-.625.625-.625H17c.234 0 .469.156.547.39.117.235.039.508-.117.704L15.984 8.25H17c.313 0 .625.313.625.625A.64.64 0 0 1 17 9.5h-2.5c-.273 0-.508-.156-.586-.352-.117-.234-.039-.507.117-.703L15.477 7zm3.75-4.375c0-.312.273-.625.625-.625h2.5c.234 0 .469.156.547.39.117.235.039.508-.117.704L20.359 4.5h1.016c.313 0 .625.313.625.625a.64.64 0 0 1-.625.625h-2.5c-.273 0-.508-.156-.586-.352-.117-.234-.039-.507.117-.703l1.446-1.445h-.977a.617.617 0 0 1-.625-.625m-2.54 9.219c.43 0 .782-.117 1.017-.352a.755.755 0 0 1 1.093-.039c.313.274.313.781.04 1.094-.587.625-1.368.86-2.15.86-.741 0-1.562-.235-2.108-.86-.313-.313-.313-.82 0-1.094.351-.312.82-.273 1.132.04.196.234.586.35.977.35m-8.476-.352c.196.235.586.352.977.352.43 0 .781-.117 1.016-.352a.755.755 0 0 1 1.093-.039c.313.274.313.781.04 1.094-.587.625-1.368.86-2.15.86-.741 0-1.562-.235-2.108-.86-.313-.313-.313-.82 0-1.094.351-.312.82-.273 1.132.04"/>
  </mask>
  <g mask="url(#a)">
    <path d="M0 0h24v24H0z"/>
  </g>
</svg>
